X: 23733
T: Little Beggarman, The
R: reel
M: 4/4
K: Amixolydian
|:=F|E>A-A>^G A2 (3Bcd|(3efe e>c d2 c>d|e>A (3AAA A>B (3cBA|B>cB>A G2- G>=F|
E2 A2 A>Bc>d|e2 e>c d4|e>a (3aaa a>ge>d|=c2 A2 A3:|
|:f|g2 g>a g>fe>f|g>fe>c d>Bc>d|e>A-A>^G A>Bc>A|B>^GE>F G2 F>G|
E>A (3AAA A>Bc>d|e2- e>c d>B (3Bcd|e2 a2 a>ge>d|=c>AA>^G A3:|

